TileServer und Tiles/svg/9/29_49.svg

<?xml version='1.0' encoding='UTF-8' standalone='no'?>
<svg xmlns="http://www.w3.org/2000/svg" width="497pt" viewBox="0 0 497 279" xmlns:xlink="http://www.w3.org/1999/xlink" height="279pt">
 <defs style="stroke:none;" overflow="visible">
  <path id="glyph0-6" d="M 0.28125 0 L 1.40625 -5.359375 L 2.28125 -5.359375 L 1.734375 -2.78125 L 4.234375 -5.359375 L 5.328125 -5.359375 L 2.6875 -2.703125 L 4.46875 0 L 3.421875 0 L 1.71875 -2.671875 L 1.15625 0 Z M 0.28125 0 "/>
  <path id="glyph0-5" d="M -0.21875 2.40625 L 1.421875 -5.359375 L 2.140625 -5.359375 L 2.015625 -4.359375 L 2.0625 -4.359375 C 2.289062 -4.648438 2.550781 -4.90625 2.84375 -5.125 C 3.144531 -5.34375 3.476562 -5.453125 3.84375 -5.453125 C 4.28125 -5.453125 4.628906 -5.296875 4.890625 -4.984375 C 5.160156 -4.679688 5.296875 -4.226562 5.296875 -3.625 C 5.296875 -3.132812 5.234375 -2.664062 5.109375 -2.21875 C 4.992188 -1.769531 4.820312 -1.367188 4.59375 -1.015625 C 4.375 -0.671875 4.101562 -0.398438 3.78125 -0.203125 C 3.457031 -0.00390625 3.09375 0.09375 2.6875 0.09375 C 2.332031 0.09375 2.039062 0.00390625 1.8125 -0.171875 C 1.59375 -0.359375 1.425781 -0.570312 1.3125 -0.8125 L 1.265625 -0.8125 C 1.265625 -0.707031 1.25 -0.5625 1.21875 -0.375 C 1.195312 -0.1875 1.171875 -0.03125 1.140625 0.09375 L 0.65625 2.40625 Z M 2.625 -0.625 C 2.882812 -0.625 3.125 -0.707031 3.34375 -0.875 C 3.570312 -1.050781 3.765625 -1.28125 3.921875 -1.5625 C 4.078125 -1.851562 4.195312 -2.175781 4.28125 -2.53125 C 4.363281 -2.894531 4.40625 -3.265625 4.40625 -3.640625 C 4.40625 -4.359375 4.117188 -4.71875 3.546875 -4.71875 C 3.328125 -4.71875 3.101562 -4.632812 2.875 -4.46875 C 2.644531 -4.3125 2.429688 -4.09375 2.234375 -3.8125 C 2.046875 -3.53125 1.890625 -3.207031 1.765625 -2.84375 C 1.648438 -2.488281 1.59375 -2.109375 1.59375 -1.703125 C 1.59375 -1.390625 1.675781 -1.128906 1.84375 -0.921875 C 2.007812 -0.722656 2.269531 -0.625 2.625 -0.625 Z M 2.625 -0.625 "/>
  <path id="glyph0-4" d="M -0.25 2.40625 C -0.40625 2.40625 -0.535156 2.394531 -0.640625 2.375 C -0.742188 2.351562 -0.84375 2.328125 -0.9375 2.296875 L -0.9375 1.59375 C -0.84375 1.613281 -0.742188 1.632812 -0.640625 1.65625 C -0.535156 1.675781 -0.421875 1.6875 -0.296875 1.6875 C -0.0234375 1.6875 0.203125 1.601562 0.390625 1.4375 C 0.585938 1.269531 0.769531 1.023438 0.9375 0.703125 L 1.296875 0.078125 L 0.484375 -5.359375 L 1.359375 -5.359375 L 1.703125 -2.703125 C 1.742188 -2.492188 1.769531 -2.257812 1.78125 -2 C 1.800781 -1.75 1.816406 -1.507812 1.828125 -1.28125 C 1.835938 -1.050781 1.84375 -0.863281 1.84375 -0.71875 L 1.875 -0.71875 C 1.914062 -0.820312 1.976562 -0.976562 2.0625 -1.1875 C 2.15625 -1.40625 2.253906 -1.628906 2.359375 -1.859375 C 2.472656 -2.085938 2.570312 -2.273438 2.65625 -2.421875 L 4.203125 -5.359375 L 5.15625 -5.359375 L 1.75 0.90625 C 1.476562 1.40625 1.191406 1.78125 0.890625 2.03125 C 0.597656 2.28125 0.21875 2.40625 -0.25 2.40625 Z M -0.25 2.40625 "/>
  <path id="glyph0-3" d="M 0.28125 0 L 1.421875 -5.359375 L 2.140625 -5.359375 L 2.03125 -4.375 L 2.078125 -4.375 C 2.203125 -4.539062 2.34375 -4.707031 2.5 -4.875 C 2.664062 -5.039062 2.859375 -5.175781 3.078125 -5.28125 C 3.296875 -5.394531 3.539062 -5.453125 3.8125 -5.453125 C 4.175781 -5.453125 4.457031 -5.347656 4.65625 -5.140625 C 4.851562 -4.929688 4.972656 -4.640625 5.015625 -4.265625 L 5.046875 -4.265625 C 5.179688 -4.460938 5.335938 -4.648438 5.515625 -4.828125 C 5.703125 -5.015625 5.910156 -5.164062 6.140625 -5.28125 C 6.367188 -5.394531 6.617188 -5.453125 6.890625 -5.453125 C 7.304688 -5.453125 7.625 -5.335938 7.84375 -5.109375 C 8.070312 -4.890625 8.1875 -4.566406 8.1875 -4.140625 C 8.1875 -3.984375 8.175781 -3.832031 8.15625 -3.6875 C 8.132812 -3.550781 8.109375 -3.410156 8.078125 -3.265625 L 7.390625 0 L 6.5 0 L 7.21875 -3.359375 C 7.25 -3.515625 7.269531 -3.644531 7.28125 -3.75 C 7.300781 -3.851562 7.3125 -3.957031 7.3125 -4.0625 C 7.3125 -4.257812 7.253906 -4.414062 7.140625 -4.53125 C 7.035156 -4.65625 6.863281 -4.71875 6.625 -4.71875 C 6.414062 -4.71875 6.1875 -4.632812 5.9375 -4.46875 C 5.695312 -4.3125 5.472656 -4.066406 5.265625 -3.734375 C 5.054688 -3.398438 4.894531 -2.960938 4.78125 -2.421875 L 4.265625 0 L 3.390625 0 L 4.09375 -3.359375 C 4.15625 -3.660156 4.1875 -3.878906 4.1875 -4.015625 C 4.1875 -4.234375 4.132812 -4.40625 4.03125 -4.53125 C 3.9375 -4.65625 3.773438 -4.71875 3.546875 -4.71875 C 3.328125 -4.71875 3.09375 -4.640625 2.84375 -4.484375 C 2.601562 -4.328125 2.375 -4.070312 2.15625 -3.71875 C 1.945312 -3.363281 1.78125 -2.894531 1.65625 -2.3125 L 1.15625 0 Z M 0.28125 0 "/>
  <path id="glyph0-2" d="M 0.203125 0.0625 C 0.117188 0.0625 0.046875 0.0507812 -0.015625 0.03125 C -0.0859375 0.0195312 -0.148438 0.0078125 -0.203125 0 L -0.203125 -0.703125 C -0.128906 -0.679688 -0.046875 -0.671875 0.046875 -0.671875 C 0.222656 -0.671875 0.367188 -0.726562 0.484375 -0.84375 C 0.597656 -0.957031 0.726562 -1.171875 0.875 -1.484375 C 0.96875 -1.691406 1.082031 -1.878906 1.21875 -2.046875 C 1.363281 -2.210938 1.550781 -2.34375 1.78125 -2.4375 C 1.457031 -2.519531 1.21875 -2.671875 1.0625 -2.890625 C 0.914062 -3.117188 0.84375 -3.375 0.84375 -3.65625 C 0.84375 -4.144531 1.019531 -4.550781 1.375 -4.875 C 1.726562 -5.195312 2.257812 -5.359375 2.96875 -5.359375 L 5.015625 -5.359375 L 3.875 0 L 3.015625 0 L 3.453125 -2.109375 L 2.8125 -2.109375 C 2.5 -2.109375 2.269531 -2.03125 2.125 -1.875 C 1.976562 -1.726562 1.828125 -1.5 1.671875 -1.1875 C 1.546875 -0.925781 1.421875 -0.703125 1.296875 -0.515625 C 1.171875 -0.328125 1.023438 -0.179688 0.859375 -0.078125 C 0.691406 0.015625 0.472656 0.0625 0.203125 0.0625 Z M 2.734375 -2.859375 L 3.625 -2.859375 L 3.984375 -4.609375 L 2.828125 -4.609375 C 2.472656 -4.609375 2.195312 -4.519531 2 -4.34375 C 1.8125 -4.175781 1.71875 -3.945312 1.71875 -3.65625 C 1.71875 -3.351562 1.816406 -3.144531 2.015625 -3.03125 C 2.210938 -2.914062 2.453125 -2.859375 2.734375 -2.859375 Z M 2.734375 -2.859375 "/>
  <path id="glyph0-1" d="M -0.5625 0 L 3.3125 -7.140625 L 4.25 -7.140625 L 5.125 0 L 4.25 0 L 3.984375 -2.21875 L 1.5625 -2.21875 L 0.40625 0 Z M 2 -3.015625 L 3.890625 -3.015625 L 3.734375 -4.515625 C 3.703125 -4.773438 3.675781 -5.054688 3.65625 -5.359375 C 3.632812 -5.660156 3.617188 -5.929688 3.609375 -6.171875 L 3.578125 -6.171875 C 3.472656 -5.921875 3.347656 -5.648438 3.203125 -5.359375 C 3.066406 -5.066406 2.921875 -4.773438 2.765625 -4.484375 Z M 2 -3.015625 "/>
  <path id="glyph0-0" d="M 0.9375 0 L 0.9375 -7.140625 L 5.046875 -7.140625 L 5.046875 0 Z M 1.453125 -0.515625 L 4.546875 -0.515625 L 4.546875 -6.625 L 1.453125 -6.625 Z M 1.453125 -0.515625 "/>
 </defs>
 <image width="497" xlink:href="svg/9/29_49.jpg" height="279"/>
 <g>
  <path d="M 128.457031 119.714844 L 132.332031 112.574219 L 133.269531 112.574219 L 134.144531 119.714844 L 133.269531 119.714844 L 133.003906 117.496094 L 130.582031 117.496094 L 129.425781 119.714844 Z M 131.019531 116.699219 L 132.910156 116.699219 L 132.753906 115.199219 C 132.722656 114.941406 132.695312 114.660156 132.675781 114.355469 C 132.652344 114.054688 132.636719 113.785156 132.628906 113.542969 L 132.597656 113.542969 C 132.492188 113.792969 132.367188 114.066406 132.222656 114.355469 C 132.085938 114.648438 131.941406 114.941406 131.785156 115.230469 Z M 131.019531 116.699219 " transform=" rotate(  340 149.335 116.716) " style="fill:none;stroke-width:2;stroke-linecap:butt;stroke-linejoin:round;stroke:rgb(100%,100%,100%);stroke-opacity:0.6;stroke-miterlimit:10;"/>
  <path d="M 134.84375 119.777344 C 134.757812 119.777344 134.6875 119.765625 134.625 119.746094 C 134.554688 119.734375 134.492188 119.722656 134.4375 119.714844 L 134.4375 119.011719 C 134.511719 119.035156 134.59375 119.042969 134.6875 119.042969 C 134.863281 119.042969 135.007812 118.988281 135.125 118.871094 C 135.238281 118.757812 135.367188 118.542969 135.515625 118.230469 C 135.609375 118.023438 135.722656 117.835938 135.859375 117.667969 C 136.003906 117.503906 136.191406 117.371094 136.421875 117.277344 C 136.097656 117.195312 135.859375 117.042969 135.703125 116.824219 C 135.554688 116.597656 135.484375 116.339844 135.484375 116.058594 C 135.484375 115.570312 135.660156 115.164062 136.015625 114.839844 C 136.367188 114.519531 136.898438 114.355469 137.609375 114.355469 L 139.65625 114.355469 L 138.515625 119.714844 L 137.65625 119.714844 L 138.09375 117.605469 L 137.453125 117.605469 C 137.140625 117.605469 136.910156 117.683594 136.765625 117.839844 C 136.617188 117.988281 136.46875 118.214844 136.3125 118.527344 C 136.1875 118.789062 136.0625 119.011719 135.9375 119.199219 C 135.8125 119.386719 135.664062 119.535156 135.5 119.636719 C 135.332031 119.730469 135.113281 119.777344 134.84375 119.777344 Z M 137.375 116.855469 L 138.265625 116.855469 L 138.625 115.105469 L 137.46875 115.105469 C 137.113281 115.105469 136.835938 115.195312 136.640625 115.371094 C 136.453125 115.539062 136.359375 115.769531 136.359375 116.058594 C 136.359375 116.363281 136.457031 116.570312 136.65625 116.683594 C 136.851562 116.800781 137.09375 116.855469 137.375 116.855469 Z M 137.375 116.855469 " transform=" rotate(  340 149.335 116.716) " style="fill:none;stroke-width:2;stroke-linecap:butt;stroke-linejoin:round;stroke:rgb(100%,100%,100%);stroke-opacity:0.6;stroke-miterlimit:10;"/>
  <path d="M 140.242188 119.714844 L 141.382812 114.355469 L 142.101562 114.355469 L 141.992188 115.339844 L 142.039062 115.339844 C 142.164062 115.175781 142.304688 115.007812 142.460938 114.839844 C 142.625 114.675781 142.820312 114.539062 143.039062 114.433594 C 143.257812 114.320312 143.5 114.261719 143.773438 114.261719 C 144.136719 114.261719 144.417969 114.367188 144.617188 114.574219 C 144.8125 114.785156 144.933594 115.074219 144.976562 115.449219 L 145.007812 115.449219 C 145.140625 115.253906 145.296875 115.066406 145.476562 114.886719 C 145.664062 114.699219 145.871094 114.550781 146.101562 114.433594 C 146.328125 114.320312 146.578125 114.261719 146.851562 114.261719 C 147.265625 114.261719 147.585938 114.378906 147.804688 114.605469 C 148.03125 114.824219 148.148438 115.148438 148.148438 115.574219 C 148.148438 115.730469 148.136719 115.882812 148.117188 116.027344 C 148.09375 116.164062 148.070312 116.304688 148.039062 116.449219 L 147.351562 119.714844 L 146.460938 119.714844 L 147.179688 116.355469 C 147.210938 116.199219 147.230469 116.070312 147.242188 115.964844 C 147.261719 115.863281 147.273438 115.757812 147.273438 115.652344 C 147.273438 115.457031 147.214844 115.300781 147.101562 115.183594 C 146.996094 115.058594 146.824219 114.996094 146.585938 114.996094 C 146.375 114.996094 146.148438 115.082031 145.898438 115.246094 C 145.65625 115.402344 145.433594 115.648438 145.226562 115.980469 C 145.015625 116.316406 144.855469 116.753906 144.742188 117.292969 L 144.226562 119.714844 L 143.351562 119.714844 L 144.054688 116.355469 C 144.117188 116.054688 144.148438 115.835938 144.148438 115.699219 C 144.148438 115.480469 144.09375 115.308594 143.992188 115.183594 C 143.898438 115.058594 143.734375 114.996094 143.507812 114.996094 C 143.289062 114.996094 143.054688 115.074219 142.804688 115.230469 C 142.5625 115.386719 142.335938 115.644531 142.117188 115.996094 C 141.90625 116.351562 141.742188 116.820312 141.617188 117.402344 L 141.117188 119.714844 Z M 140.242188 119.714844 " transform=" rotate(  340 149.335 116.716) " style="fill:none;stroke-width:2;stroke-linecap:butt;stroke-linejoin:round;stroke:rgb(100%,100%,100%);stroke-opacity:0.6;stroke-miterlimit:10;"/>
  <path d="M 148.460938 122.121094 C 148.304688 122.121094 148.175781 122.109375 148.070312 122.089844 C 147.96875 122.066406 147.867188 122.042969 147.773438 122.011719 L 147.773438 121.308594 C 147.867188 121.328125 147.96875 121.347656 148.070312 121.371094 C 148.175781 121.390625 148.289062 121.402344 148.414062 121.402344 C 148.6875 121.402344 148.914062 121.316406 149.101562 121.152344 C 149.296875 120.984375 149.480469 120.738281 149.648438 120.417969 L 150.007812 119.792969 L 149.195312 114.355469 L 150.070312 114.355469 L 150.414062 117.011719 C 150.453125 117.222656 150.480469 117.457031 150.492188 117.714844 C 150.511719 117.964844 150.527344 118.207031 150.539062 118.433594 C 150.546875 118.664062 150.554688 118.851562 150.554688 118.996094 L 150.585938 118.996094 C 150.625 118.894531 150.6875 118.738281 150.773438 118.527344 C 150.867188 118.308594 150.964844 118.085938 151.070312 117.855469 C 151.183594 117.628906 151.28125 117.441406 151.367188 117.292969 L 152.914062 114.355469 L 153.867188 114.355469 L 150.460938 120.621094 C 150.1875 121.121094 149.902344 121.496094 149.601562 121.746094 C 149.308594 121.996094 148.929688 122.121094 148.460938 122.121094 Z M 148.460938 122.121094 " transform=" rotate(  340 149.335 116.716) " style="fill:none;stroke-width:2;stroke-linecap:butt;stroke-linejoin:round;stroke:rgb(100%,100%,100%);stroke-opacity:0.6;stroke-miterlimit:10;"/>
  <path d="M 153.160156 122.121094 L 154.800781 114.355469 L 155.519531 114.355469 L 155.394531 115.355469 L 155.441406 115.355469 C 155.667969 115.066406 155.929688 114.808594 156.222656 114.589844 C 156.523438 114.371094 156.855469 114.261719 157.222656 114.261719 C 157.660156 114.261719 158.007812 114.417969 158.269531 114.730469 C 158.539062 115.035156 158.675781 115.488281 158.675781 116.089844 C 158.675781 116.582031 158.613281 117.050781 158.488281 117.496094 C 158.371094 117.945312 158.199219 118.347656 157.972656 118.699219 C 157.753906 119.042969 157.480469 119.316406 157.160156 119.511719 C 156.835938 119.710938 156.472656 119.808594 156.066406 119.808594 C 155.710938 119.808594 155.417969 119.71875 155.191406 119.542969 C 154.972656 119.355469 154.804688 119.144531 154.691406 118.902344 L 154.644531 118.902344 C 154.644531 119.007812 154.628906 119.152344 154.597656 119.339844 C 154.574219 119.527344 154.550781 119.683594 154.519531 119.808594 L 154.035156 122.121094 Z M 156.003906 119.089844 C 156.261719 119.089844 156.503906 119.007812 156.722656 118.839844 C 156.949219 118.664062 157.144531 118.433594 157.300781 118.152344 C 157.457031 117.863281 157.574219 117.539062 157.660156 117.183594 C 157.742188 116.820312 157.785156 116.449219 157.785156 116.074219 C 157.785156 115.355469 157.496094 114.996094 156.925781 114.996094 C 156.707031 114.996094 156.480469 115.082031 156.253906 115.246094 C 156.023438 115.402344 155.808594 115.621094 155.613281 115.902344 C 155.425781 116.183594 155.269531 116.507812 155.144531 116.871094 C 155.027344 117.226562 154.972656 117.605469 154.972656 118.011719 C 154.972656 118.324219 155.054688 118.585938 155.222656 118.792969 C 155.386719 118.992188 155.648438 119.089844 156.003906 119.089844 Z M 156.003906 119.089844 " transform=" rotate(  340 149.335 116.716) " style="fill:none;stroke-width:2;stroke-linecap:butt;stroke-linejoin:round;stroke:rgb(100%,100%,100%);stroke-opacity:0.6;stroke-miterlimit:10;"/>
  <path d="M 159.453125 119.714844 L 160.578125 114.355469 L 161.453125 114.355469 L 160.90625 116.933594 L 163.40625 114.355469 L 164.5 114.355469 L 161.859375 117.011719 L 163.640625 119.714844 L 162.59375 119.714844 L 160.890625 117.042969 L 160.328125 119.714844 Z M 159.453125 119.714844 " transform=" rotate(  340 149.335 116.716) " style="fill:none;stroke-width:2;stroke-linecap:butt;stroke-linejoin:round;stroke:rgb(100%,100%,100%);stroke-opacity:0.6;stroke-miterlimit:10;"/>
  <path d="M 163.78125 122.121094 C 163.625 122.121094 163.496094 122.109375 163.390625 122.089844 C 163.289062 122.066406 163.1875 122.042969 163.09375 122.011719 L 163.09375 121.308594 C 163.1875 121.328125 163.289062 121.347656 163.390625 121.371094 C 163.496094 121.390625 163.609375 121.402344 163.734375 121.402344 C 164.007812 121.402344 164.234375 121.316406 164.421875 121.152344 C 164.617188 120.984375 164.800781 120.738281 164.96875 120.417969 L 165.328125 119.792969 L 164.515625 114.355469 L 165.390625 114.355469 L 165.734375 117.011719 C 165.773438 117.222656 165.800781 117.457031 165.8125 117.714844 C 165.832031 117.964844 165.847656 118.207031 165.859375 118.433594 C 165.867188 118.664062 165.875 118.851562 165.875 118.996094 L 165.90625 118.996094 C 165.945312 118.894531 166.007812 118.738281 166.09375 118.527344 C 166.1875 118.308594 166.285156 118.085938 166.390625 117.855469 C 166.503906 117.628906 166.601562 117.441406 166.6875 117.292969 L 168.234375 114.355469 L 169.1875 114.355469 L 165.78125 120.621094 C 165.507812 121.121094 165.222656 121.496094 164.921875 121.746094 C 164.628906 121.996094 164.25 122.121094 163.78125 122.121094 Z M 163.78125 122.121094 " transform=" rotate(  340 149.335 116.716) " style="fill:none;stroke-width:2;stroke-linecap:butt;stroke-linejoin:round;stroke:rgb(100%,100%,100%);stroke-opacity:0.6;stroke-miterlimit:10;"/>
  <g transform=" rotate(  340 149.335 116.716) " style="fill:rgb(30.196078%,50.196078%,70.196078%);fill-opacity:1;">
   <use xlink:href="#glyph0-1" y="119.716373" x="129.020455"/>
   <use xlink:href="#glyph0-2" y="119.716373" x="134.640455"/>
   <use xlink:href="#glyph0-3" y="119.716373" x="139.960455"/>
   <use xlink:href="#glyph0-4" y="119.716373" x="148.710455"/>
   <use xlink:href="#glyph0-5" y="119.716373" x="153.380455"/>
   <use xlink:href="#glyph0-6" y="119.716373" x="159.170455"/>
   <use xlink:href="#glyph0-4" y="119.716373" x="164.030455"/>
  </g>
 </g>
</svg>

<svg xmlns="http://www.w3.org/2000/svg" xmlns:xlink="http://www.w3.org/1999/xlink" viewBox="0 0 497 279"> <defs overflow="visible" style="stroke:none">  <path id="f" d="m.3 0 1.1-5.4h.9l-.6 2.6 2.5-2.6h1.1L2.7-2.7 4.5 0h-1L1.6-2.7 1.2 0Zm0 0"/>  <path id="e" d="m-.2 2.4 1.6-7.8h.7v1l.7-.6c.3-.3.7-.5 1-.5.5 0 .8.2 1 .5.5.3.6.8.6 1.4-.1.5-.1 1-.3 1.4L4.6-1l-.8.8a2 2 0 0 1-1.1.3C2.3 0 2 0 1.8-.2a2 2 0 0 1-.5-.6v.4L1 .1.7 2.4Zm2.8-3c.4 0 .5-.1.7-.4.3 0 .5-.3.7-.6a4 4 0 0 0 .3-1 5 5 0 0 0 .1-.9c0-.9-.3-1.2-.9-1.2-.2 0-.4 0-.5.2l-.8.7-.4 1c-.2.3-.2.7-.2 1.1 0 .3 0 .6.2.8.2.2.5.3.8.3Zm0 0"/>  <path id="d" d="M-.3 2.4h-.3l-.4-.1v-.7h.7c.3.1.5.1.7-.1.2-.2.4-.5.5-.8l.4-.6-.8-5.5h.9l.3 2.7v.7l.2.7v.6A28.4 28.4 0 0 1 2.5-2c-.1 0 .1-.3.2-.4l1.5-3h1L1.7 1c-.1.4-.4.8-.7 1-.4.3-.8.4-1.2.4Zm0 0"/>  <path id="c" d="m.3 0 1.1-5.4h.7v1l.4-.5.6-.4.7-.2c.4 0 .7.2.9.5.2 0 .3.4.3.7l.5-.5.6-.5.9-.2c.3 0 .6.2.9.5.1 0 .2.4.2.9v.4l-.1.4L7.4 0h-.9l.7-3.4v-.4l.2-.2c-.1-.3-.1-.4-.3-.5 0-.2-.1-.2-.5-.2-.2 0-.4 0-.6.2l-.7.8c-.3.3-.4.7-.5 1.3L4.3 0h-1l.9-3.4v-1.1c-.4-.2-.5-.2-.8-.2-.1 0-.3 0-.6.2l-.6.8c-.3.3-.4.7-.5 1.4L1.2 0Zm0 0"/>  <path id="b" d="M.2 0h-.4v-.7H0l.5-.1.4-.7c0-.2.1-.4.3-.5l.6-.4c-.3-.1-.6-.3-.8-.6a1.4 1.4 0 0 1-.2-.7c0-.3.2-.9.6-1.2.3-.3.9-.5 1.6-.5h2L4 0H3l.5-2.1h-.7c-.3 0-.5 0-.7.1l-.4.8-.4.7-.4.4-.7.2Zm2.5-2.8h1L4-4.6H2.8c-.3 0-.6 0-.8.3-.2.1-.3.3-.3.6s.1.7.3.7h.7Zm0-.1"/>  <path id="a" d="m-.6 0 4-7.1h.8L5 0h-.7L4-2.2H1.6L.4 0ZM2-3h1.9l-.2-1.5v-1.7h-.2a14 14 0 0 1-.3.8l-.4 1Zm0 0"/>  <path d="M1 0v-7.1h4V0Zm.4-.5h3.1v-6.1h-3Zm.1 0"/> </defs> <image xlink:href="svg/9/29_49.jpg" width="497" height="279"/> <path d="m128.5 119.7 3.8-7.1h1l.7 7.1h-.7l-.3-2.2h-2.4l-1.2 2.2Zm2.5-3h2l-.3-1.5V113.5h-.2a14 14 0 0 1-.3.9l-.4.8Zm3.8 3.1h-.4v-.8h.6l.5-.8.5-.5.4-.4-.7-.5a1.4 1.4 0 0 1-.2-.7c0-.5.2-1.1.5-1.3.4-.3 1-.4 1.6-.4h2l-.9 5.3h-1.2l.7-2h-1.4l-.5.8-.3.7c0 .2-.3.3-.5.4l-.7.2Zm2.6-3h.9l.3-1.6h-1.1c-.5-.1-.7 0-.9.2l-.2.6c0 .4 0 .6.3.7l.7.2Zm2.8 2.9 1.2-5.3h.6v1l.5-.7.5-.3.8-.1c.2 0 .6 0 .8.3l.4.8.5-.4.5-.6.9-.1c.4 0 .7 0 .9.3.2.2.3.5.3 1v.8l-.8 3.3h-.9l.9-3.3v-.7l-.1-.5-.6-.2c-.2 0-.6 0-.7.2-.2.2-.5.4-.7.8l-.5 1.3-.5 2.4h-.8l.6-3.3v-1.2l-.5-.2c-.2 0-.4 0-.7.2-.2.2-.5.4-.7.8-.1.4-.4.8-.5 1.4l-.5 2.3Zm8.3 2.4h-.7v-.9h.2l.4.3c.3-.1.6-.1.7-.3l.5-.8.4-.6-.8-5.4h.9l.3 2.6v.7l.2.7v.6a28.4 28.4 0 0 1 .6-1.1c-.2-.3.1-.5.2-.6l1.5-3h1.1l-3.5 6.4c-.3.4-.6.8-.9 1-.3.3-.7.4-1.1.4Zm4.7 0 1.6-7.7h.7l-.1 1 .8-.8c.3-.2.8-.3 1-.3.5 0 .8.1 1 .4.4.3.6.8.6 1.4-.1.5-.1.9-.3 1.4l-.5 1.2-.8.8a2 2 0 0 1-1.2.3c-.3 0-.6 0-1-.3a2 2 0 0 1-.2-.5l-.3.3v.5l-.5 2.3Zm2.8-3c.3-.1.5-.1.7-.3l.6-.6a4 4 0 0 0 .4-1 5 5 0 0 0 0-1.2c.1-.6-.1-1-.7-1-.3 0-.5 0-.7.2l-.7.8-.5.9-.1 1.1c0 .3 0 .6.2.8.2.2.4.2.8.2Zm3.5.6 1-5.3h1.1l-.7 2.5 2.5-2.5h1.1l-2.6 2.6 1.7 2.7h-1l-1.7-2.7-.6 2.7Zm4.3 2.4h-.8v-.9h.4l.3.3c.3-.1.5-.1.7-.3l.6-.8.3-.6-.8-5.4h.9l.3 2.6.1.7v1.3h.2a28.4 28.4 0 0 1 .4-1.1l.3-.6 1.5-3h1l-3.4 6.4c-.3.4-.6.8-.9 1-.3.3-.7.4-1.1.4Zm0 0" style="fill:none;stroke-width:2;stroke-linecap:butt;stroke-linejoin:round;stroke:#fff;stroke-opacity:.6;stroke-miterlimit:10" transform=" rotate(  340 149.335 116.716) "/> <g style="fill:#4d80b3;fill-opacity:1" transform=" rotate(  340 149.335 116.716) ">  <use xlink:href="#a" x="129" y="119.7"/>  <use xlink:href="#b" x="134.6" y="119.7"/>  <use xlink:href="#c" x="140" y="119.7"/>  <use xlink:href="#d" x="148.7" y="119.7"/>  <use xlink:href="#e" x="153.4" y="119.7"/>  <use xlink:href="#f" x="159.2" y="119.7"/>  <use xlink:href="#d" x="164" y="119.7"/> </g></svg>
